build/controls/vbo-dark/tooltip.svg

<svg xmlns="http://www.w3.org/2000/svg" viewBox="0 0 11.009 11.017" enable-background="new 0 0 11.009 11.017"><polygon fill="#fff" points="5.505,0.741 8.257,5.509 11.009,10.276 5.505,10.276 0,10.276 2.753,5.509"/><path d="M5.605 7.566h-.194c-.021-.337-.089-.745-.204-1.224l-.231-.967c-.139-.58-.208-.996-.208-1.247 0-.228.068-.411.204-.55s.313-.208.532-.208c.213 0 .39.07.53.211.141.14.211.319.211.534 0 .225-.074.645-.222 1.26l-.235.967c-.083.343-.144.751-.183 1.224zm-.092.635c.198 0 .368.07.508.211.14.14.211.311.211.512 0 .198-.071.368-.211.508-.141.14-.311.211-.508.211-.198 0-.368-.07-.508-.211-.14-.14-.21-.31-.21-.508s.069-.368.208-.51.308-.213.51-.213z"/></svg>

<?xml version="1.0" encoding="utf-8"?>
<!-- Generator: Adobe Illustrator 16.0.0, SVG Export Plug-In . SVG Version: 6.00 Build 0)  -->
<!DOCTYPE svg PUBLIC "-//W3C//DTD SVG 1.1//EN" "http://www.w3.org/Graphics/SVG/1.1/DTD/svg11.dtd">
<svg version="1.1" xmlns="http://www.w3.org/2000/svg" xmlns:xlink="http://www.w3.org/1999/xlink" x="0px" y="0px"
	 viewBox="0 0 11.009 11.017" enable-background="new 0 0 11.009 11.017" xml:space="preserve">
<g id="Calque_2">
	<polygon fill="#FFFFFF" points="5.505,0.741 8.257,5.509 11.009,10.276 5.505,10.276 0,10.276 2.753,5.509 	"/>
	<g>
		<path d="M5.605,7.566H5.411C5.39,7.229,5.322,6.821,5.207,6.342L4.976,5.375c-0.139-0.58-0.208-0.996-0.208-1.247
			c0-0.228,0.068-0.411,0.204-0.55s0.313-0.208,0.532-0.208c0.213,0,0.39,0.07,0.53,0.211c0.141,0.14,0.211,0.319,0.211,0.534
			c0,0.225-0.074,0.645-0.222,1.26L5.788,6.342C5.705,6.685,5.644,7.093,5.605,7.566z M5.513,8.201c0.198,0,0.368,0.07,0.508,0.211
			c0.14,0.14,0.211,0.311,0.211,0.512c0,0.198-0.071,0.368-0.211,0.508C5.88,9.572,5.71,9.643,5.513,9.643
			c-0.198,0-0.368-0.07-0.508-0.211c-0.14-0.14-0.21-0.31-0.21-0.508s0.069-0.368,0.208-0.51S5.311,8.201,5.513,8.201z"/>
	</g>
</g>
<g id="tracé" display="none">
	<polygon display="inline" fill="#FFFFFF" points="11.009,4.66 5.504,7.838 0,11.017 0,4.66 0,-1.696 5.504,1.482 	"/>
	
		<image display="inline" overflow="visible" width="37" height="31" xlink:href="47AB4C1.jpg"  transform="matrix(0.2969 0 0 0.2969 0.0122 1.814)">
	</image>
</g>
</svg>
